X:1
T:An Wasserflüssen Babylon
T:Benedictus Dicis
T:Source : DDT 34---Leipzig---Breifkopf & Härtel---J.Wolf---1908 Firste publication : Neue Deudsche Geistliche Gesenge---Wittemberg---G.Rhau---1544. Editor : André Vierendeels (18/07/17).
T:Notes : Original clefs : C1, C3, C4, F4 Original note values have been halved Editorial accidentals above the staff
T:An Wasserflüssen Babylon
T:©
T:©
T:©
T:©
C:Benedictus Dicis
Z:©
%%score [ 1 [ 2 3 ] 4 ]
L:1/8
Q:1/4=120
M:2/2
K:F
V:1 treble nm="Soprano" snm="S"
V:2 treble-8 nm="Tenor 1" snm="T 1"
V:3 treble-8 nm="Tenor 2" snm="T 2"
V:4 bass nm="Bass" snm="B"
V:1
 c8 | d2 c2 A4 | c4 B4 | G4 A4- | A8 | G6 G2 | E8 | E6 F2 | G4 A2 G2- | G2 F4 E2 |1 F8 :|2 %11
w: An|Was- ser- flüs-|sen Ba-|by- lon,|_|Ba- by-|lon,|da sas-|zen wir mit|_ Schmer- *|zen;|
w: Als|wir ge- dach-|ten an|Si- on,|_|an Si-|on,|da wein-|ten wir von|_ Her- *||
 F4 z2 F2 || E2 D2 G4 | F4 F2 GF | ED E4 F2- | F2 E2 F4- | F8- | F8- | F4 z4 | z8 | z4 z2 G2 | %21
w: zen. Wir|hin- gen auf|mit schwe- * *||* ren Mut|_||||an|
w: ||||||||||
 A3 G F2 A2- | A2 G2 F3 G | E4 D4- | D8 | z2 G2 F4- | F2 F2 E3 F | G2 A3 G G2- | G2 F2 G2 E2 | %29
w: ei- * nen Baum|_ der Wei- *|* den,|_|die drin-|* nen sind _|in ih- ren Land.|_ Da mmus- zten|
w: ||||||||
 F3 G E4 | D4 D2 E2- | ED C4 B,2 | C4 z4 | C4 D4 | C2 F2 E2 A2- | AG F4 E2 | F8 |] %37
w: wir _ viel|Schmerz und Schand,|_ _ _ _||täg- lich|von ih- nen lei-||den.|
w: ||||||||
V:2
 c4 f4- | f4 f4 | e2 c2 d4 | e4 f4- | f4 c4 | e4 d4 | c8 | c4 c2 d2- | d2 e2 f2 _e2- | edcB c4 |1 %10
w: An Was-|* ser-|flüs- sen Ba-|by- lon,|_ Ba-|* by-|lon,|da sas- zen|_ wir mit Schmer-||
w: Als wir|_ ge-|dach- ten an|Si- on,|_ an|_ Si-|on,|da wein- ten|_ wir von Her-||
 A8 :|2 A4 z2 A2- || A2 B4 c2 | d4 d4 | c6 c2 | c4 z2 A2 | B2 A2 D2 d2- | d2 cB A4 | B2 f4 e2 | %19
w: zen;|zen. Wir|_ hin- gen|auf mit|schwe- ren|Mut die|Or- * * *|* * * geln|und _ die|
w: |||||||||
 f2 g2 f2 e2 | d4 c2 e2 | f3 e d2 cB | A2 c2 A2 B2 |"^#" A2 G4 F2 | G4 D4 | z2 B2 B2 AG | %26
w: Har- * fen _|gut _ an|ei- * nen _ _|Baum _ der _|Wei- * *|* den,|die drin- nen _|
w: |||||||
 A2 B2 c3 d | e2 f2 d4- | d2 d2 B2 c2 | d4 c3 B | AG A2 B2 c2 | G2 A2 G4 | E4 A4- | A4 D4 | %34
w: sind in ihr- *|* rem Land.|_ Da mus- zten|wir viel _|_ _ Schmerz [und Schand,|viel _ Schmerz]|und Schand|_ täg-|
w: ||||||||
 E2 F2 G2 A2 | D2 d2 c4 | A8 |] %37
w: lich von ih- nen|lei- * *|den.|
w: |||
V:3
 z8 | z8 | z8 | c8 | d2 c2 A4 | c4 B4 | G4 A4 | G4 A4 | B4 c4 | B2 A2 G4 |1 F8 :|2 F8 || z2 F2 G4 | %13
w: |||An|Was- ser- flüs-|sen Ba-|by- lon,|da sas-|zen wir|mit _ Schmer-|zen;|zen.|Wir hin-|
w: |||Als|wir ge- dach-|ten an|Si- on,|da wein-|ten wir|von _ Her-||||
 A4 B4 | G4 B4 | G4 F4 | z2 F2 A4 | B4 c4 | d4 A4- | A2 G2 A2 c2- |"^-natural" c2 B2 c4 | z4 A4 | %22
w: gen auf|mit schwe-|ren Mut|doe Or-|geln und|die Har-||* fen gut|an|
w: |||||||||
 c4 d4 | c4 A4 | B4 A4 | z2 d2 d4- | d2 d2 G4 | c4 B4 | A4 G4 | B4 A2 G2- | G2 F2 G3 F | E2 F2 D4 | %32
w: ei- nen|Baum der|Wei- den,|die drin-|* gen sind|in ih-|rem Land.|Da mus- zten|_ wir viel _|Schmerz _ und|
w: ||||||||||
 C4 C4 | F6 G2 | A3 B c3 B | A2 B2 G4 | F8 |] %37
w: Schand täg-|lich von|ih- nen lei- *||den.|
w: |||||
V:4
 z8 | z8 | z8 | C,4 F,4- | F,4 F,4 | E,2 C,2 G,4 | C,4 C,4- | C,4 z2 D,2 | G,4 F,2 C,2 | %9
w: |||An Was-|* ser-|flüs- sen Ba-|by- lon,|_ da|sas- zen wir|
w: |||Als wir|_ ge-|dach- ten an|Si- on,|_ da|wein- ten wir|
 _E,2 F,2 C,4 |1 z8 :|2 z2 D,3 C, D,2 || C,2 B,,2 _E,4 | D,4 B,,4 | C,4 C,4- | C,4 z2 D,2 | %16
w: mit Schmer- zen;||Wir _ _|hin- gen auf|mit schwe-|ren Mut|_ die|
w: von Her- zen.|||||||
 D,3 E, F,E,D,C, | B,,4 F,4 | B,,3 C, D,2 C,2 | D,2 E,2 D,2 C,2 | G,4 C,4 | z2 D,4 F,2 | %22
w: Or- * * * * *|geln und|die _ _ Har-||fen gut|an ei-|
w: ||||||
 F,2 E,2 D,2 B,,2 | C,4 D,4 | G,,2 G,4 F,2 | G,4 D,4- | D,4 C,4- | C,2 F,,2 G,,4 | D,4 G,,2 C,2 | %29
w: nen Baum der Wei-||den, die _|drin- nen|_ sind|_ in ih-|rem Land.. Da|
w: |||||||
 B,,4 C,4 | D,4 G,,2 C,2- | C,2 F,,2 G,,4 | A,,4 F,,4- | F,,4 B,,4 | A,,2 D,2 C,2 F,2- | %35
w: mus- zten|wir viel schmerz|_ und Schand|täg- lich|_ von|ih- * nen lei-|
w: ||||||
 F,E,D,C,/B,,/ C,4 | F,,8 |] %37
w: |den.|
w: ||

